Papirus/16x16/apps/bendy-and-the-ink-machine.svg

<svg width="16" height="16" version="1.1" xmlns="http://www.w3.org/2000/svg">
 <path d="m5 0c-3.0639864 1.2011938-4.9996605 4.7089699-5 8 0 4.418278 3.581722 8 8 8s8-3.581722 8-8c-0.0029-3.2872056-1.940202-6.7985979-5-8 0 0.3239288-9.37e-4 0.8520885 0 1 0 1.1045695-1.3431458 2-3 2s-3-0.8954305-3-2c0.0013439-0.15062318 0-0.84141258 0-1z" style="fill:#4f4f4f"/>
 <path d="m5 5c-0.4162438 0.0295816-1.2967509 0.7329309-2 1-0.6989584 1.0049714-0.9995805 1.7758635-1 3 0 3.313708 2.6862915 6 6 6 3.313708 0 6-2.686292 6-6-0.002313-1.2256391-0.297891-1.9953912-1-3-0.701432-0.2660709-1.586019-0.9705792-2-1-1.0514407-0.0747236-3 1-3 1s-1.9485593-1.0747236-3-1zm-0.4941406 2c0.1788399 0.0010511 0.3616826 0.0440459 0.5371094 0.1347656 0.7017066 0.3628788 1.0920819 1.3629677 0.9140624 2.3378906-0.0396564 0.2171795-0.1077244 0.4156983-0.1933593 0.5957028a2.5 0.5 0 0 0-1.2636719-0.068359 2.5 0.5 0 0 0-1.2675781 0.070312c-0.1416293-0.2977313-0.2257567-0.6488763-0.2324219-1.023437l1-0.046875-0.8164062-0.9609375c0.2712695-0.6599543 0.7857459-1.0422158 1.3222656-1.0390625zm7.0410156 0c0.177942 0.0073575 0.356491 0.0582686 0.529297 0.1542969 0.691223 0.3841135 1.065416 1.387931 0.875 2.3535156-0.040301 0.2043601-0.108246 0.390136-0.189453 0.5605465a2.5 0.5 0 0 0-1.261719-0.068359 2.5 0.5 0 0 0-1.265625 0.070312c-0.143397-0.3009468-0.229105-0.6544651-0.234375-1.0332026l1-0.0371094-0.792969-1.015625c0.285256-0.6450316 0.806018-1.0064476 1.339844-0.984375zm-6.546875 4v2.701172c-0.5654904-0.295486-1-0.701172-1-0.701172v-1c0-1 1-1 1-1zm1 0h1v3h-1v-3zm3 0h1v3h-1v-3zm2 0s1 0 1 1v1s-0.43451 0.405686-1 0.701172v-2.701172z" style="fill:#ffce66"/>
</svg>

<svg xmlns="http://www.w3.org/2000/svg" width="16" height="16" version="1.1">
 <path style="fill:#4f4f4f" d="M 5,0 C 1.936,1.2012 3.395e-4,4.709 0,8 0,12.418 3.5817,16 8,16 12.418,16 16,12.418 16,8 15.997,4.7128 14.06,1.2014 11,0 11,0.32393 10.999,0.85209 11,1 11,2.1046 9.6569,3 8,3 6.3431,3 5,2.1046 5,1 5.0013,0.84938 5,0.15859 5,0 Z"/>
 <path style="fill:#ffce66" d="M 5,5 C 4.5838,5.0296 3.7032,5.7329 3,6 2.301,7.005 2.0004,7.7759 2,9 2,12.314 4.6863,15 8,15 11.314,15 14,12.314 14,9 13.998,7.7744 13.702,7.0046 13,6 12.299,5.7339 11.414,5.0294 11,5 9.9486,4.9253 8,6 8,6 8,6 6.0514,4.9253 5,5 Z M 4.5059,7 C 4.6847,7.0011 4.8675,7.044 5.043,7.1348 5.7447,7.4976 6.1351,8.4977 5.957,9.4727 5.9174,9.6898 5.8493,9.8884 5.7637,10.068 A 2.5,0.5 0 0 0 4.5,10 2.5,0.5 0 0 0 3.2324,10.07 C 3.0908,9.7726 3.0067,9.4214 3,9.0469 L 4,9 3.1836,8.0391 C 3.4549,7.3791 3.9693,6.9968 4.5059,7 Z M 11.547,7 C 11.725,7.0074 11.903,7.0583 12.076,7.1543 12.767,7.5384 13.142,8.5422 12.951,9.5078 12.911,9.7122 12.843,9.8979 12.762,10.068 A 2.5,0.5 0 0 0 11.5,10 2.5,0.5 0 0 0 10.234,10.07 C 10.091,9.7694 10.005,9.4158 10,9.0371 L 11,9 10.207,7.9844 C 10.492,7.3393 11.013,6.9779 11.547,7 Z M 5,11 V 13.701 C 4.4345,13.406 4,13 4,13 V 12 C 4,11 5,11 5,11 Z M 6,11 H 7 V 14 H 6 Z M 9,11 H 10 V 14 H 9 Z M 11,11 C 11,11 12,11 12,12 V 13 C 12,13 11.565,13.406 11,13.701 Z"/>
</svg>
